X: 26563
T: Mick Carr's
R: barndance
M: 4/4
K: Gmajor
|:B>c|d2 d>c B>GG>B|d>ed>B g2 A>B|c>dc>B A>=FF>A|c>dc>A d2 B>c|
d>ed>c B>GG>B|d>ed>B g2 f>g|e>fg>e d>cB>A|(3GAG F>A G2:|
|:G>d|D>GG>B d2 (3Bcd|g>dB>G c2- c>d|D>FA>B c2 c>d|(3efg d>c B2 B>d|
D>GG>B d2 (3Bcd|g>dB>G c2 c>d|D>EF>G A>Bc>A|(3GAG F>A G2:|

